outputs/icons/audio_video/play_outline_round.svg

<svg xmlns="http://www.w3.org/2000/svg" width="1200" height="1200" fill="none"><g clip-path="url(#a)"><path fill="#000" d="m540 795 233.5-175c13.5-10 13.5-30 0-40L540 405c-16.5-12.5-40-.5-40 20v350c0 20.5 23.5 32.5 40 20m60-695c-276 0-500 224-500 500s224 500 500 500 500-224 500-500-224-500-500-500m0 900c-220.5 0-400-179.5-400-400s179.5-400 400-400 400 179.5 400 400-179.5 400-400 400"/></g><defs><clipPath id="a"><path fill="#fff" d="M0 0h1200v1200H0z"/></clipPath></defs></svg>

<svg width="1200" height="1200" viewBox="0 0 1200 1200" fill="none" xmlns="http://www.w3.org/2000/svg"><g clip-path="url(#clip0_231_5134)"><path d="M540 795L773.5 620C787 610 787 590 773.5 580L540 405C523.5 392.5 500 404.5 500 425V775C500 795.5 523.5 807.5 540 795ZM600 100C324 100 100 324 100 600C100 876 324 1100 600 1100C876 1100 1100 876 1100 600C1100 324 876 100 600 100ZM600 1000C379.5 1000 200 820.5 200 600C200 379.5 379.5 200 600 200C820.5 200 1000 379.5 1000 600C1000 820.5 820.5 1000 600 1000Z" fill="#1D1E23"/></g><defs><clipPath id="clip0_231_5134"><path width="24" fill="white" d="M0 0H1200V1200H0V0z"/></clipPath></defs></svg>
